X:4220
T:Miss ?\& Mr? Clouse
O:england
R:Reel
M:C|
A:Westmorland
N:P25(1st) 1/2
K:D
E|DAAF EFAF|DBBA B>ABd|\
DAAF AB/2c/2 de|fdge fdd2||\
e|dfAf d/2d/2d f2|e>fed Beed|\
dfAf d/2d/2d f2|f/2g/2a eg fdde|\
dfAf d/2d/2d f2|e>fed Beed|\
dfeg faeg|dBAG FD D2|]


